build/img/check.svg

<svg width="205" height="205" viewBox="0 0 205 205" fill="none" xmlns="http://www.w3.org/2000/svg">
<path fill-rule="evenodd" clip-rule="evenodd" d="M18.8639 -89H185.328C250.416 -89 294 -43.304 294 24.6639V181.547C294 249.304 250.416 295 185.328 295H18.8639C-46.224 295 -90 249.304 -90 181.547V24.6639C-90 -43.304 -46.224 -89 18.8639 -89ZM91.0548 160.408L182.255 69.2077C188.783 62.6797 188.783 52.1197 182.255 45.3997C175.727 38.8717 164.975 38.8717 158.447 45.3997L79.1508 124.696L45.5509 91.0956C39.0229 84.5676 28.2709 84.5676 21.7429 91.0956C15.2149 97.6236 15.2149 108.184 21.7429 114.904L67.4388 160.408C70.7028 163.672 74.9268 165.208 79.1508 165.208C83.5668 165.208 87.7908 163.672 91.0548 160.408Z" fill="#FF4E00"/>
</svg>

<svg width="205" height="205" fill="none" xmlns="http://www.w3.org/2000/svg"><path fill-rule="evenodd" clip-rule="evenodd" d="M18.864-89h166.464C250.416-89 294-43.304 294 24.664v156.883C294 249.304 250.416 295 185.328 295H18.864C-46.224 295-90 249.304-90 181.547V24.664C-90-43.304-46.224-89 18.864-89zm72.19 249.408l91.201-91.2c6.528-6.528 6.528-17.088 0-23.808-6.528-6.528-17.28-6.528-23.808 0l-79.296 79.296-33.6-33.6c-6.528-6.528-17.28-6.528-23.808 0-6.528 6.528-6.528 17.088 0 23.808l45.696 45.504c3.264 3.264 7.488 4.8 11.712 4.8 4.416 0 8.64-1.536 11.904-4.8z" fill="#FF4E00"/></svg>
